X:651
T: WENN ICH ZUM THUEREL NAUS GEH
N: E0600A
O: Europa, Mitteleuropa, Deutschland, Schlesien, Neisse
R: Liebes - Lied
M: 3/8
L: 1/8
K: D
 | FEF | GFG | A2
A | AdF | AGE | F2z
AdF | AGE
GBE | GFD
FEF | GFG | A2
A | AdF | AGE | F2z

